svgs/duotone/arrow-up-small-big.svg

<svg xmlns="http://www.w3.org/2000/svg" viewBox="0 0 512 512"><!-- Font Awesome Pro 6.0.0-alpha2 by @fontawesome - https://fontawesome.com License - https://fontawesome.com/license (Commercial License) --><defs><style>.fa-secondary{opacity:.4}</style></defs><path d="M480 256H320C302.326 256 288 270.328 288 288V448C288 465.672 302.326 480 320 480H480C497.674 480 512 465.672 512 448V288C512 270.328 497.674 256 480 256ZM320 192H416C433.6 192 448 177.602 448 160V64C448 46.398 433.6 32 416 32H320C302.4 32 288 46.398 288 64V160C288 177.602 302.4 192 320 192Z" class="fa-secondary"/><path d="M239.591 138.039C251.527 151.086 250.652 171.352 237.623 183.305C231.482 188.934 223.732 191.719 216.013 191.719C207.341 191.719 198.716 188.215 192.404 181.332L160 145.938V447.969C160 465.672 145.671 480 128 480S96 465.672 96 447.969V145.938L63.595 181.332C51.642 194.344 31.392 195.25 18.377 183.305C5.347 171.352 4.472 151.086 16.408 138.039L104.406 41.945C116.531 28.684 139.468 28.684 151.593 41.945L239.591 138.039Z" class="fa-primary"/></svg>

<svg xmlns="http://www.w3.org/2000/svg" viewBox="0 0 512 512"><!--! Font Awesome Pro 6.3.0 by @fontawesome - https://fontawesome.com License - https://fontawesome.com/license (Commercial License) Copyright 2023 Fonticons, Inc. --><defs><style>.fa-secondary{opacity:.4}</style></defs><path class="fa-primary" d="M239.6 138c11.94 13.05 11.06 33.31-1.969 45.27c-6.141 5.629-13.89 8.414-21.61 8.414c-8.672 0-17.3-3.504-23.61-10.39L160 145.9v302C160 465.7 145.7 480 128 480s-32-14.33-32-32.03V145.9L63.6 181.3C51.64 194.3 31.39 195.3 18.38 183.3C5.348 171.4 4.473 151.1 16.41 138l87.1-96.09c12.12-13.26 35.06-13.26 47.19 0L239.6 138z"/><path class="fa-secondary" d="M480 256h-160c-17.67 0-32 14.33-32 32v160c0 17.67 14.33 32 32 32h160c17.67 0 32-14.33 32-32V288C512 270.3 497.7 256 480 256zM320 192h96c17.6 0 32-14.4 32-32V64c0-17.6-14.4-32-32-32h-96c-17.6 0-32 14.4-32 32v96C288 177.6 302.4 192 320 192z"/></svg>
